pix_core/i/info.svg

<svg preserveAspectRatio="xMinYMid meet" viewBox="0 0 192 512" xmlns="http://www.w3.org/2000/svg"><path d="m48 80a48 48 0 1 1 96 0 48 48 0 1 1 -96 0zm-48 144c0-17.7 14.3-32 32-32h64c17.7 0 32 14.3 32 32v224h32c17.7 0 32 14.3 32 32s-14.3 32-32 32h-128c-17.7 0-32-14.3-32-32s14.3-32 32-32h32v-192h-32c-17.7 0-32-14.3-32-32z" fill="#fff"/></svg>

<svg xmlns="http://www.w3.org/2000/svg" viewBox="0 0 192 512" preserveAspectRatio="xMinYMid meet"><!--!Font Awesome Free 6.5.2 by @fontawesome - https://fontawesome.com License - https://fontawesome.com/license/free Copyright 2024 Fonticons, Inc.--><path fill="#fff" d="M48 80a48 48 0 1 1 96 0A48 48 0 1 1 48 80zM0 224c0-17.7 14.3-32 32-32H96c17.7 0 32 14.3 32 32V448h32c17.7 0 32 14.3 32 32s-14.3 32-32 32H32c-17.7 0-32-14.3-32-32s14.3-32 32-32H64V256H32c-17.7 0-32-14.3-32-32z"/></svg>
